icon/pk/bytedance.svg

<svg width="48" height="48" fill="none" xmlns="http://www.w3.org/2000/svg"><path d="m5 7 5 2v28l-5 2V7ZM16 23l5 2v12l-5 2V23ZM27 21l5-2v16l-5-2V21ZM38 9l5 2v26l-5 2V9Z" fill="#2F88FF" stroke="#000" stroke-width="4" stroke-linejoin="round"/></svg>

<svg viewBox="0 0 48 48" fill="none" xmlns="http://www.w3.org/2000/svg" height="1em" width="1em">
  <path d="M5 7L10 9V37L5 39V7Z" fill="#2F88FF" stroke="black" stroke-width="4" stroke-linejoin="round"/>
  <path d="M16 23L21 25V37L16 39V23Z" fill="#2F88FF" stroke="black" stroke-width="4" stroke-linejoin="round"/>
  <path d="M27 21L32 19V35L27 33V21Z" fill="#2F88FF" stroke="black" stroke-width="4" stroke-linejoin="round"/>
  <path d="M38 9L43 11V37L38 39V9Z" fill="#2F88FF" stroke="black" stroke-width="4" stroke-linejoin="round"/>
</svg>
